X: 9479
T: Dargason
R: jig
M: 6/8
K: Gmajor
G2E E2E|G2B BAG|A2F F2F|A2c cBA|
G2E E2E|G2B BGB|cde fed|1 e2c B2A:|2 e3 e2a||
g2e e2e|g2b bag|fdB BdB|BdB BdB|
g2e e2e|g2b bag|fdB Bcd|e3 e2a|
g2e e2e|g2b bag|fdB BdB|BdB BdB|
gag gag|aba aba|gag fed|e2c B2A|
G2E E2E|G2B BAG|A2F F2F|A2c cBA|
G2E E2E|G2B BGB|cde fed|e3 e3||

